src/topics/icons/codeclimate.svg

<svg height="58" preserveAspectRatio="xMidYMid" viewBox="0 0 512 58" width="512" xmlns="http://www.w3.org/2000/svg"><g fill="#0b2734"><g transform="translate(125.848739 10.756303)"><path d="m20.0067227.96806723c5.4857143 0 9.5731092 1.7210084 13.2302521 5.05546218.5378151.4302521.5378151 1.07563025.107563 1.50588235l-4.302521 4.41008404c-.4302521.4302521-.9680672.4302521-1.3983193 0-2.0436975-1.8285714-4.7327731-2.79663866-7.4218488-2.79663866-6.2386554 0-10.75630248 5.16302526-10.75630248 11.29411766s4.62521008 11.0789916 10.75630248 11.0789916c2.5815126 0 5.3781513-.9680672 7.3142858-2.5815126.4302521-.3226891 1.0756302-.3226891 1.3983193.107563l4.302521 4.5176471c.4302521.4302521.3226891 1.0756302-.107563 1.5058823-3.7647059 3.6571429-8.389916 5.2705883-13.3378152 5.2705883-10.97142853 0-19.7915966-8.7126051-19.7915966-19.6840337 0-10.97142853 9.03529412-19.68403357 20.0067227-19.68403357z"/><path d="m56.5781513.96806723c10.9714285 0 19.6840336 8.82016806 19.6840336 19.79159667 0 10.9714285-8.7126051 19.6840336-19.6840336 19.6840336-10.9714286 0-19.6840337-8.7126051-19.6840337-19.6840336 0-10.97142861 8.8201681-19.79159667 19.6840337-19.79159667zm0 30.76302517c6.0235294 0 10.9714285-4.9478991 10.9714285-10.8638655 0-6.0235294-4.9478991-10.97142858-10.9714285-10.97142858-6.0235295 0-10.8638656 4.94789918-10.8638656 10.97142858 0 5.9159664 4.9478992 10.8638655 10.8638656 10.8638655z"/><path d="m82.9310924 2.58151261c0-.53781513.4302521-1.07563026.9680673-1.07563026h13.3378151c10.5411762 0 19.2537812 8.60504205 19.2537812 19.14621845 0 10.6487395-8.605042 19.2537816-19.2537812 19.2537816h-13.3378151c-.5378152 0-.9680673-.5378152-.9680673-1.0756303zm13.8756303 29.25714289c6.2386553 0 10.6487393-4.8403362 10.6487393-11.0789916 0-6.2386555-4.517647-11.07899163-10.6487393-11.07899163h-5.2705882v22.15798323z"/><path d="m123.267227 2.58151261c0-.53781513.430252-1.07563026 1.07563-1.07563026h22.695798c.645379 0 1.075631.53781513 1.075631 1.07563026v6.02352941c0 .53781512-.430252 1.07563025-1.075631 1.07563025h-15.166386v6.77647063h12.477311c.537815 0 1.07563.5378151 1.07563 1.0756302v6.0235294c0 .6453782-.537815 1.0756303-1.07563 1.0756303h-12.477311v7.4218487h15.166386c.645379 0 1.075631.5378151 1.075631 1.0756303v6.0235294c0 .5378151-.430252 1.0756302-1.075631 1.0756302h-22.695798c-.645378 0-1.07563-.5378151-1.07563-1.0756302z"/><path d="m184.470588.96806723c5.485715 0 9.573109 1.7210084 13.230252 5.05546218.537815.4302521.537815 1.07563025.107563 1.50588235l-4.302521 4.41008404c-.430252.4302521-.968067.4302521-1.398319 0-2.043697-1.8285714-4.732773-2.79663866-7.421849-2.79663866-6.238655 0-10.756302 5.16302526-10.756302 11.29411766s4.62521 11.0789916 10.756302 11.0789916c2.581513 0 5.378152-.9680672 7.314286-2.5815126.430252-.3226891 1.07563-.3226891 1.398319.107563l4.302521 4.5176471c.430252.4302521.322689 1.0756302-.107563 1.5058823-3.764706 3.6571429-8.389916 5.2705883-13.337815 5.2705883-10.971428 0-19.791596-8.7126051-19.791596-19.6840337 0-10.97142853 9.035294-19.68403357 20.006722-19.68403357z"/><path d="m204.262185 2.58151261c0-.53781513.430252-1.07563026 1.07563-1.07563026h6.561345c.537815 0 1.07563.53781513 1.07563 1.07563026v29.25714289h13.015126c.645378 0 1.07563.5378151 1.07563 1.0756302v6.0235294c0 .5378152-.430252 1.0756303-1.07563 1.0756303h-20.544538c-.645378 0-1.07563-.5378151-1.07563-1.0756303v-36.35630249z"/><path d="m232.336134 2.58151261c0-.53781513.537816-1.07563026 1.075631-1.07563026h6.561344c.537815 0 1.07563.53781513 1.07563 1.07563026v36.24873949c0 .5378151-.537815 1.0756303-1.07563 1.0756303h-6.561344c-.537815 0-1.075631-.5378152-1.075631-1.0756303z"/><path d="m254.171429 1.93613445c.107563-.53781512.537815-.8605042.968067-.8605042h.860504c.322689 0 .752941.21512605.968067.53781513l12.692437 23.66386552h.107563l12.692437-23.66386552c.215126-.32268908.645378-.53781513.968067-.53781513h.860505c.430252 0 .968067.4302521.968067.8605042l6.238655 36.78655465c.107563.7529412-.430252 1.1831933-1.07563 1.1831933h-6.453781c-.537816 0-.968068-.4302521-1.075631-.8605042l-2.473949-16.887395h-.107563l-9.142857 17.6403361c-.215126.3226891-.645379.6453782-.968068.6453782h-.968067c-.322689 0-.752941-.3226891-.968067-.6453782l-9.25042-17.7478991h-.107563l-2.366387 16.8873949c-.107563.4302521-.537815.8605042-1.07563.8605042h-6.453782c-.645378 0-1.183193-.5378151-1.07563-1.1831932z"/><path d="m293.539496 38.507563 17.102521-36.89411762c.215126-.32268908.537815-.64537815.968067-.64537815h.537815c.430252 0 .752941.32268907.968067.64537815l17.102521 36.89411762c.322689.7529412-.107563 1.3983194-.968067 1.3983194h-6.131092c-.968067 0-1.39832-.3226891-1.936135-1.3983194l-1.936134-4.302521h-14.843698l-1.936134 4.4100841c-.322689.6453781-.860504 1.2907563-1.936135 1.2907563h-6.023529c-.860504 0-1.290756-.7529412-.968067-1.3983194zm22.480672-11.7243697-4.194958-9.0352941h-.107563l-4.087395 9.0352941z"/><path d="m337.747899 9.57310924h-7.852101c-.645378 0-1.07563-.53781512-1.07563-1.07563025v-6.02352941c0-.53781513.430252-1.07563025 1.07563-1.07563025h24.309244c.645378 0 1.07563.53781512 1.07563 1.07563025v6.13109244c0 .53781512-.430252 1.07563025-1.07563 1.07563025h-7.852101v29.25714283c0 .5378152-.537815 1.0756303-1.07563 1.0756303h-6.561345c-.537815 0-1.07563-.5378151-1.07563-1.0756303v-29.36470586z"/><path d="m360.658824 2.58151261c0-.53781513.430252-1.07563026 1.07563-1.07563026h22.695798c.645378 0 1.07563.53781513 1.07563 1.07563026v6.02352941c0 .53781512-.430252 1.07563025-1.07563 1.07563025h-15.166386v6.77647063h12.47731c.537816 0 1.075631.5378151 1.075631 1.0756302v6.0235294c0 .6453782-.537815 1.0756303-1.075631 1.0756303h-12.47731v7.4218487h15.166386c.645378 0 1.07563.5378151 1.07563 1.0756303v6.0235294c0 .5378151-.430252 1.0756302-1.07563 1.0756302h-22.695798c-.645378 0-1.07563-.5378151-1.07563-1.0756302z"/></g><path d="m68.6252101 0-19.5764706 19.4689076 11.6168067 11.6168067 7.9596639-7.9596639 22.3731092 22.4806723 11.5092437-11.6168067z"/><path d="m45.4991597 23.0184874-11.5092437-11.5092437-29.47226894 29.4722689-4.51764706 4.5176471 11.6168067 11.6168067 4.5176471-4.6252101 14.9512605-14.8436975 2.9042017-2.9042017 11.5092437 11.5092437 10.8638655 10.8638656 11.6168067-11.6168067-10.8638655-10.8638656z"/></g></svg>

<?xml version="1.0" encoding="UTF-8" standalone="no"?>
<svg width="512px" height="58px" viewBox="0 0 512 58" version="1.1" xmlns="http://www.w3.org/2000/svg" xmlns:xlink="http://www.w3.org/1999/xlink" preserveAspectRatio="xMidYMid">
	<g fill="#0B2734">
		<g transform="translate(125.848739, 10.756303)">
			<path d="M20.0067227,0.968067227 C25.492437,0.968067227 29.5798319,2.68907563 33.2369748,6.02352941 C33.7747899,6.45378151 33.7747899,7.09915966 33.3445378,7.52941176 L29.0420168,11.9394958 C28.6117647,12.3697479 28.0739496,12.3697479 27.6436975,11.9394958 C25.6,10.1109244 22.9109244,9.14285714 20.2218487,9.14285714 C13.9831933,9.14285714 9.46554622,14.3058824 9.46554622,20.4369748 C9.46554622,26.5680672 14.0907563,31.5159664 20.2218487,31.5159664 C22.8033613,31.5159664 25.6,30.5478992 27.5361345,28.9344538 C27.9663866,28.6117647 28.6117647,28.6117647 28.9344538,29.0420168 L33.2369748,33.5596639 C33.6672269,33.989916 33.5596639,34.6352941 33.1294118,35.0655462 C29.3647059,38.7226891 24.7394958,40.3361345 19.7915966,40.3361345 C8.82016807,40.3361345 7.10542736e-14,31.6235294 7.10542736e-14,20.6521008 C7.10542736e-14,9.68067227 9.03529412,0.968067227 20.0067227,0.968067227 L20.0067227,0.968067227 Z"></path>
			<path d="M56.5781513,0.968067227 C67.5495798,0.968067227 76.2621849,9.78823529 76.2621849,20.7596639 C76.2621849,31.7310924 67.5495798,40.4436975 56.5781513,40.4436975 C45.6067227,40.4436975 36.8941176,31.7310924 36.8941176,20.7596639 C36.8941176,9.78823529 45.7142857,0.968067227 56.5781513,0.968067227 L56.5781513,0.968067227 Z M56.5781513,31.7310924 C62.6016807,31.7310924 67.5495798,26.7831933 67.5495798,20.8672269 C67.5495798,14.8436975 62.6016807,9.89579832 56.5781513,9.89579832 C50.5546218,9.89579832 45.7142857,14.8436975 45.7142857,20.8672269 C45.7142857,26.7831933 50.6621849,31.7310924 56.5781513,31.7310924 L56.5781513,31.7310924 Z"></path>
			<path d="M82.9310924,2.58151261 C82.9310924,2.04369748 83.3613445,1.50588235 83.8991597,1.50588235 L97.2369748,1.50588235 C107.778151,1.50588235 116.490756,10.1109244 116.490756,20.6521008 C116.490756,31.3008403 107.885714,39.9058824 97.2369748,39.9058824 L83.8991597,39.9058824 C83.3613445,39.9058824 82.9310924,39.3680672 82.9310924,38.8302521 L82.9310924,2.58151261 L82.9310924,2.58151261 Z M96.8067227,31.8386555 C103.045378,31.8386555 107.455462,26.9983193 107.455462,20.7596639 C107.455462,14.5210084 102.937815,9.68067227 96.8067227,9.68067227 L91.5361345,9.68067227 L91.5361345,31.8386555 L96.8067227,31.8386555 L96.8067227,31.8386555 Z"></path>
			<path d="M123.267227,2.58151261 C123.267227,2.04369748 123.697479,1.50588235 124.342857,1.50588235 L147.038655,1.50588235 C147.684034,1.50588235 148.114286,2.04369748 148.114286,2.58151261 L148.114286,8.60504202 C148.114286,9.14285714 147.684034,9.68067227 147.038655,9.68067227 L131.872269,9.68067227 L131.872269,16.4571429 L144.34958,16.4571429 C144.887395,16.4571429 145.42521,16.994958 145.42521,17.5327731 L145.42521,23.5563025 C145.42521,24.2016807 144.887395,24.6319328 144.34958,24.6319328 L131.872269,24.6319328 L131.872269,32.0537815 L147.038655,32.0537815 C147.684034,32.0537815 148.114286,32.5915966 148.114286,33.1294118 L148.114286,39.1529412 C148.114286,39.6907563 147.684034,40.2285714 147.038655,40.2285714 L124.342857,40.2285714 C123.697479,40.2285714 123.267227,39.6907563 123.267227,39.1529412 L123.267227,2.58151261 L123.267227,2.58151261 Z"></path>
			<path d="M184.470588,0.968067227 C189.956303,0.968067227 194.043697,2.68907563 197.70084,6.02352941 C198.238655,6.45378151 198.238655,7.09915966 197.808403,7.52941176 L193.505882,11.9394958 C193.07563,12.3697479 192.537815,12.3697479 192.107563,11.9394958 C190.063866,10.1109244 187.37479,9.14285714 184.685714,9.14285714 C178.447059,9.14285714 173.929412,14.3058824 173.929412,20.4369748 C173.929412,26.5680672 178.554622,31.5159664 184.685714,31.5159664 C187.267227,31.5159664 190.063866,30.5478992 192,28.9344538 C192.430252,28.6117647 193.07563,28.6117647 193.398319,29.0420168 L197.70084,33.5596639 C198.131092,33.989916 198.023529,34.6352941 197.593277,35.0655462 C193.828571,38.7226891 189.203361,40.3361345 184.255462,40.3361345 C173.284034,40.3361345 164.463866,31.6235294 164.463866,20.6521008 C164.463866,9.68067227 173.49916,0.968067227 184.470588,0.968067227 L184.470588,0.968067227 Z"></path>
			<path d="M204.262185,2.58151261 C204.262185,2.04369748 204.692437,1.50588235 205.337815,1.50588235 L211.89916,1.50588235 C212.436975,1.50588235 212.97479,2.04369748 212.97479,2.58151261 L212.97479,31.8386555 L225.989916,31.8386555 C226.635294,31.8386555 227.065546,32.3764706 227.065546,32.9142857 L227.065546,38.9378151 C227.065546,39.4756303 226.635294,40.0134454 225.989916,40.0134454 L205.445378,40.0134454 C204.8,40.0134454 204.369748,39.4756303 204.369748,38.9378151 L204.369748,2.58151261 L204.262185,2.58151261 Z"></path>
			<path d="M232.336134,2.58151261 C232.336134,2.04369748 232.87395,1.50588235 233.411765,1.50588235 L239.973109,1.50588235 C240.510924,1.50588235 241.048739,2.04369748 241.048739,2.58151261 L241.048739,38.8302521 C241.048739,39.3680672 240.510924,39.9058824 239.973109,39.9058824 L233.411765,39.9058824 C232.87395,39.9058824 232.336134,39.3680672 232.336134,38.8302521 L232.336134,2.58151261 L232.336134,2.58151261 Z"></path>
			<path d="M254.171429,1.93613445 C254.278992,1.39831933 254.709244,1.07563025 255.139496,1.07563025 L256,1.07563025 C256.322689,1.07563025 256.752941,1.2907563 256.968067,1.61344538 L269.660504,25.2773109 L269.768067,25.2773109 L282.460504,1.61344538 C282.67563,1.2907563 283.105882,1.07563025 283.428571,1.07563025 L284.289076,1.07563025 C284.719328,1.07563025 285.257143,1.50588235 285.257143,1.93613445 L291.495798,38.7226891 C291.603361,39.4756303 291.065546,39.9058824 290.420168,39.9058824 L283.966387,39.9058824 C283.428571,39.9058824 282.998319,39.4756303 282.890756,39.0453782 L280.416807,22.1579832 L280.309244,22.1579832 L271.166387,39.7983193 C270.951261,40.1210084 270.521008,40.4436975 270.198319,40.4436975 L269.230252,40.4436975 C268.907563,40.4436975 268.477311,40.1210084 268.262185,39.7983193 L259.011765,22.0504202 L258.904202,22.0504202 L256.537815,38.9378151 C256.430252,39.3680672 256,39.7983193 255.462185,39.7983193 L249.008403,39.7983193 C248.363025,39.7983193 247.82521,39.2605042 247.932773,38.6151261 L254.171429,1.93613445 L254.171429,1.93613445 Z"></path>
			<path d="M293.539496,38.507563 L310.642017,1.61344538 C310.857143,1.2907563 311.179832,0.968067227 311.610084,0.968067227 L312.147899,0.968067227 C312.578151,0.968067227 312.90084,1.2907563 313.115966,1.61344538 L330.218487,38.507563 C330.541176,39.2605042 330.110924,39.9058824 329.25042,39.9058824 L323.119328,39.9058824 C322.151261,39.9058824 321.721008,39.5831933 321.183193,38.507563 L319.247059,34.205042 L304.403361,34.205042 L302.467227,38.6151261 C302.144538,39.2605042 301.606723,39.9058824 300.531092,39.9058824 L294.507563,39.9058824 C293.647059,39.9058824 293.216807,39.1529412 293.539496,38.507563 L293.539496,38.507563 Z M316.020168,26.7831933 L311.82521,17.7478992 L311.717647,17.7478992 L307.630252,26.7831933 L316.020168,26.7831933 L316.020168,26.7831933 Z"></path>
			<path d="M337.747899,9.57310924 L329.895798,9.57310924 C329.25042,9.57310924 328.820168,9.03529412 328.820168,8.49747899 L328.820168,2.47394958 C328.820168,1.93613445 329.25042,1.39831933 329.895798,1.39831933 L354.205042,1.39831933 C354.85042,1.39831933 355.280672,1.93613445 355.280672,2.47394958 L355.280672,8.60504202 C355.280672,9.14285714 354.85042,9.68067227 354.205042,9.68067227 L346.352941,9.68067227 L346.352941,38.9378151 C346.352941,39.4756303 345.815126,40.0134454 345.277311,40.0134454 L338.715966,40.0134454 C338.178151,40.0134454 337.640336,39.4756303 337.640336,38.9378151 L337.640336,9.57310924 L337.747899,9.57310924 Z"></path>
			<path d="M360.658824,2.58151261 C360.658824,2.04369748 361.089076,1.50588235 361.734454,1.50588235 L384.430252,1.50588235 C385.07563,1.50588235 385.505882,2.04369748 385.505882,2.58151261 L385.505882,8.60504202 C385.505882,9.14285714 385.07563,9.68067227 384.430252,9.68067227 L369.263866,9.68067227 L369.263866,16.4571429 L381.741176,16.4571429 C382.278992,16.4571429 382.816807,16.994958 382.816807,17.5327731 L382.816807,23.5563025 C382.816807,24.2016807 382.278992,24.6319328 381.741176,24.6319328 L369.263866,24.6319328 L369.263866,32.0537815 L384.430252,32.0537815 C385.07563,32.0537815 385.505882,32.5915966 385.505882,33.1294118 L385.505882,39.1529412 C385.505882,39.6907563 385.07563,40.2285714 384.430252,40.2285714 L361.734454,40.2285714 C361.089076,40.2285714 360.658824,39.6907563 360.658824,39.1529412 L360.658824,2.58151261 L360.658824,2.58151261 Z"></path>
		</g>
		<g>
			<path d="M68.6252101,0 L49.0487395,19.4689076 L60.6655462,31.0857143 L68.6252101,23.1260504 L90.9983193,45.6067227 L102.507563,33.989916 L68.6252101,0 Z"></path>
			<path d="M45.4991597,23.0184874 L33.989916,11.5092437 L4.51764706,40.9815126 L0,45.4991597 L11.6168067,57.1159664 L16.1344538,52.4907563 L31.0857143,37.6470588 L33.989916,34.7428571 L45.4991597,46.2521008 L56.3630252,57.1159664 L67.9798319,45.4991597 L57.1159664,34.6352941 L45.4991597,23.0184874 Z"></path>
		</g>
	</g>
</svg>
